X: 67
T:Pilgarlic
% Nottingham Music Database
P:AAB
S:John Lagden, via EF
M:4/4
L:1/4
K:D
P:A
A|"D"d2 "A7"A3/2G/2|"D"FD2A|"G"BG dc/2B/2|"D"AD2A|"G"BG dc/2B/2|"A7"Ag2f/2e/2|\
"D"fd "A7"Ac|"D"d3:|
P:B
e|"D"f2 f3/2e/2|"D"fa2f|"A"e3/2c/2 Ac|"A"eg2f/2e/2|"E"d3/2B/2 ^GB|
"Bm"d"   E7"f2^g|"A"a^g/2f/2 "E7"e/2d/2c/2B/2|"A7"AA Bc|"D"d2 "A7"A3/2G/2|\
"D"FD2A|
"G"Bc dc/2B/2|"D"AD2A|"G"BG dc/2B/2|"A7"Ab ag|"D"fd "A7"Ac|"D"d3||<end>
<start>
